img/quotation-marks.svg

<svg width="84" height="72" viewBox="0 0 84 72" fill="none" xmlns="http://www.w3.org/2000/svg">
<path d="M54.9233 32.7696H66.2311C67.5774 32.7696 68.7219 32.2986 69.6643 31.3562C70.6062 30.4138 71.0777 29.2696 71.0777 27.923V26.3084C71.0777 22.7409 69.8155 19.6954 67.2911 17.1711C64.767 14.6476 61.721 13.3854 58.1539 13.3854H54.9233C54.0485 13.3854 53.2915 13.0655 52.6518 12.4264C52.0125 11.7868 51.6928 11.0299 51.6928 10.1549V3.69273C51.6928 2.81787 52.0127 2.06023 52.6518 1.4207C53.2914 0.782054 54.0483 0.46167 54.9233 0.46167H58.1539C61.6542 0.46167 64.9936 1.14381 68.1743 2.50615C71.3546 3.86937 74.1054 5.7121 76.4279 8.03453C78.7501 10.3559 80.5923 13.1069 81.9554 16.2876C83.3184 19.4679 84 22.8082 84 26.3082V61.8458C84 64.5396 83.0581 66.8268 81.1735 68.7121C79.2887 70.5964 76.9997 71.5385 74.3075 71.5385H54.9221C52.2301 71.5385 49.9418 70.5964 48.0569 68.7121C46.1726 66.8268 45.2302 64.5396 45.2302 61.8458V42.4621C45.2302 39.7689 46.1726 37.4817 48.0581 35.5961C49.9422 33.712 52.2314 32.7696 54.9233 32.7696Z" fill="black"/>
<path d="M2.82529 35.5961C4.7094 33.712 6.99787 32.7696 9.69053 32.7696H20.9982C22.3437 32.7696 23.4893 32.2986 24.4301 31.3562C25.3728 30.4138 25.8435 29.2696 25.8435 27.923V26.3084C25.8435 22.7409 24.5812 19.6954 22.0581 17.1711C19.5349 14.6476 16.4891 13.3854 12.9202 13.3854H9.69036C8.81532 13.3854 8.05786 13.0655 7.41868 12.4264C6.77986 11.7868 6.45895 11.0299 6.45895 10.1549V3.69273C6.45895 2.81787 6.77969 2.06023 7.41868 1.4207C8.05768 0.782054 8.81514 0.46167 9.69036 0.46167H12.9202C16.4225 0.46167 19.7612 1.14381 22.9427 2.50615C26.1225 3.86937 28.8725 5.7121 31.1949 8.03453C33.5173 10.3559 35.3604 13.1069 36.7229 16.2876C38.0856 19.4679 38.7681 22.8082 38.7681 26.3082V61.8458C38.7681 64.5396 37.8253 66.8268 35.9412 68.7121C34.0569 70.5964 31.7685 71.5385 29.076 71.5385H9.69159C6.99893 71.5385 4.71064 70.5964 2.82653 68.7121C0.941013 66.8268 0.000202179 64.5396 0.000202179 61.8458V42.4621C2.67029e-05 39.7687 0.941017 37.4817 2.82529 35.5961Z" fill="black"/>
</svg>

<svg width="84" height="72" viewBox="0 0 84 72" fill="none" xmlns="http://www.w3.org/2000/svg"><path d="M54.923 32.77h11.308c1.346 0 2.49-.471 3.433-1.414.942-.942 1.414-2.086 1.414-3.433v-1.615c0-3.567-1.263-6.613-3.787-9.137-2.524-2.523-5.57-3.786-9.137-3.786h-3.23c-.876 0-1.633-.32-2.272-.959-.64-.64-.96-1.396-.96-2.271V3.693c0-.875.32-1.633.96-2.272.64-.639 1.396-.96 2.271-.96h3.23c3.501 0 6.84.683 10.021 2.045 3.18 1.363 5.931 3.206 8.254 5.529 2.322 2.32 4.164 5.072 5.527 8.253A25.176 25.176 0 0184 26.308v35.538c0 2.694-.942 4.98-2.826 6.866-1.885 1.884-4.174 2.826-6.867 2.826H54.922c-2.692 0-4.98-.942-6.865-2.826-1.884-1.885-2.827-4.172-2.827-6.866V42.462c0-2.693.943-4.98 2.828-6.866 1.884-1.884 4.173-2.826 6.865-2.826zM2.825 35.596c1.884-1.884 4.173-2.826 6.866-2.826h11.307c1.346 0 2.491-.471 3.432-1.414.943-.942 1.413-2.086 1.413-3.433v-1.615c0-3.567-1.262-6.613-3.785-9.137-2.523-2.523-5.569-3.786-9.138-3.786H9.69c-.875 0-1.632-.32-2.271-.959-.64-.64-.96-1.396-.96-2.271V3.693c0-.875.32-1.633.96-2.272C8.058.782 8.815.46 9.69.46h3.23c3.502 0 6.841.683 10.023 2.045 3.18 1.363 5.93 3.206 8.252 5.529 2.322 2.32 4.165 5.072 5.528 8.253a25.182 25.182 0 012.045 10.02v35.538c0 2.694-.943 4.98-2.827 6.866-1.884 1.884-4.173 2.826-6.865 2.826H9.692c-2.693 0-4.981-.942-6.865-2.826C.94 66.827 0 64.54 0 61.846V42.462c0-2.693.941-4.98 2.825-6.866z" fill="#000"/></svg>
